Papirus/32x32/apps/deluge.svg

<svg xmlns="http://www.w3.org/2000/svg" width="32" height="32" version="1.1">
 <g style="display:none" transform="translate(0,-16)">
  <path style="fill:#99c3f9;fill-rule:evenodd" d="m 24.811452,24.996951 c -6.049549,-2.467385 -7.648816,3.683738 -6.639688,6.628769 2.195546,6.407462 11.948502,7.605174 18.062738,-3.067723 0,0 0.11598,1.28803 0.180639,1.900859 0.82106,7.781844 -5.621926,12.735535 -12.253379,12.638715 -6.631454,-0.09682 -8.657036,-2.672368 -10.611083,-5.637583 -3.170275,-4.810809 -2.429788,-11.327408 1.78168,-14.840553 4.864733,-3.959831 8.798281,-0.09585 9.479093,2.377516 z"/>
 </g>
 <g style="display:none" transform="translate(0,-16)">
  <path style="fill:#99c3f9;fill-rule:evenodd;stroke:#094491 icc-color(sRGB, 0.18046845, 0.27837034, 0.41960784);stroke-width:1.33399999" d="m 23.761543,24.179576 c -6.481311,-1.72424 -6.932125,6.183803 -5.453851,8.969604 2.408248,4.538333 12.206251,5.377175 17.706883,-3.282742 0,0 0.07651,2.193563 0.02062,2.77892 -0.534334,5.596549 -6.848986,9.789262 -11.999526,9.621298 -5.243605,-0.170999 -8.282469,-2.549917 -10.154056,-5.379263 -3.036492,-4.590373 -2.048612,-10.811985 1.554101,-13.80496 4.248899,-3.646516 7.44994,-0.562347 8.325827,1.097143 z"/>
 </g>
 <g style="display:none" transform="translate(0,-16)">
  <path style="fill:#99c3f9;fill-rule:evenodd;stroke:#094491 icc-color(sRGB, 0.18046845, 0.27837034, 0.41960784);stroke-width:2" d="m 23.507553,23.925586 c -6.495438,-1.064032 -6.790118,6.421446 -5.149063,9.579179 2.304561,4.434459 10.903063,6.282759 17.3005,-2.825561 0,0 -0.02509,1.990372 -0.08098,2.575729 -0.534334,5.596549 -6.391805,8.925697 -11.542345,8.757733 -5.243605,-0.170999 -8.247979,-2.119778 -10.001662,-5.023677 -2.772156,-4.590373 -2.467304,-9.592836 0.487345,-12.585811 3.100966,-3.879425 7.831125,-2.714919 8.986201,-0.477592 z"/>
 </g>
 <g style="display:none" transform="translate(0,-16)">
  <path style="fill:url(#radialGradient5878);fill-rule:evenodd" d="m 23.55546,23.805666 c -6.490966,-1.345852 -7.700279,4.84717 -6.759909,8.059555 1.100923,3.760845 4.033145,7.507508 11.754513,5.50458 -3.268904,5.846892 -11.255492,4.570412 -13.940353,0.387138 -2.563055,-3.993493 -2.992402,-9.05746 -1.115519,-11.776277 4.049097,-6.655711 9.485026,-4.029293 10.061268,-2.174996 z"/>
 </g>
 <path style="opacity:0.2;fill-rule:evenodd" d="M 15.117328,2.725396 7.1626734,14.180575 C 4.4265918,18.120177 4.4569558,22.375951 6.3006694,25.590337 8.1443828,28.804722 11.772417,31 16.00277,31 c 4.230215,0 7.856174,-2.19526 9.698194,-5.409663 1.842019,-3.214403 1.871277,-7.470432 -0.862005,-11.412217 L 16.881972,2.703059 C 16.194916,1.769777 15.882408,1.754078 15.117328,2.725399 Z"/>
 <path style="fill:#225394;fill-rule:evenodd" d="M 15.117328,1.725396 7.1626734,13.180575 C 4.4265918,17.120177 4.4569558,21.375951 6.3006694,24.590337 8.1443828,27.804722 11.772417,30 16.00277,30 c 4.230215,0 7.856174,-2.19526 9.698194,-5.409663 1.842019,-3.214403 1.871277,-7.470432 -0.862005,-11.412217 L 16.881972,1.703059 C 16.194916,0.769777 15.882408,0.754078 15.117328,1.725399 Z"/>
 <path style="opacity:0.2;fill-rule:evenodd" d="m 16.006743,5.105795 -6.3639784,9.731398 c 1.4764154,-1.330476 3.4314904,-1.953644 5.2878064,-1.685733 0.854491,0.123324 1.688087,0.434271 2.44229,0.950754 1.659136,1.136674 0.888576,3.532371 -1.122024,3.579777 -0.0051,5.71e-4 -0.01101,0.0021 -0.01619,0.0027 -1.671127,0.05951 -2.995441,1.430915 -2.996557,3.103101 0.0011,1.576428 1.182532,2.902217 2.748419,3.084217 0.46814,0.09199 0.996566,0.05796 1.656064,-0.04855 1.365949,-0.229225 3.35311,-0.828749 4.422014,-1.738327 2.687545,-2.133587 2.196137,-4.304358 0.581241,-6.809642 z"/>
 <path style="fill:#358eff;fill-rule:evenodd" d="m 16.006743,4.105795 -6.3639784,9.731398 c 1.4764154,-1.330476 3.4314904,-1.953644 5.2878064,-1.685733 0.854491,0.123324 1.688087,0.434271 2.44229,0.950754 1.659136,1.136674 0.888576,3.532371 -1.122024,3.579777 -0.0051,5.71e-4 -0.01101,0.0021 -0.01619,0.0027 -1.671127,0.05951 -2.995441,1.430915 -2.996557,3.103101 0.0011,1.576428 1.182532,2.902217 2.748419,3.084217 0.46814,0.09199 0.996566,0.05796 1.656064,-0.04855 1.365949,-0.229225 3.35311,-0.828749 4.422014,-1.738327 2.687545,-2.133587 2.196137,-4.304358 0.581241,-6.809642 z"/>
 <path style="opacity:0.2;fill-rule:evenodd" d="m 14.039258,15.003824 c -1.563847,-0.06809 -3.175474,0.774273 -4.1331732,2.447859 -1.3930179,2.434306 -1.2176943,5.350155 0.7895732,7.438631 2.917173,3.035193 7.211724,2.472521 9.304342,0.347648 -1.400537,0.41441 -2.655518,0.585567 -3.771958,0.477854 a 5.1563968,4.9998844 0 0 1 -0.0094,0 5.1563968,4.9998844 0 0 1 -5.156397,-4.999885 5.1563968,4.9998844 0 0 1 4.356082,-4.936083 c 0.216228,-0.05951 0.435145,-0.102807 0.657977,-0.110675 -0.624876,-0.41493 -1.326206,-0.634402 -2.037046,-0.665349 z"/>
 <path style="fill:#c3dcfc;fill-rule:evenodd" d="m 14.039258,14.003824 c -1.563847,-0.06809 -3.175474,0.774273 -4.1331732,2.447859 -1.3930179,2.434306 -1.2176943,5.350155 0.7895732,7.438631 2.917173,3.035193 7.211724,2.472521 9.304342,0.347648 -1.400537,0.41441 -2.655518,0.585567 -3.771958,0.477854 a 5.1563968,4.9998844 0 0 1 -0.0094,0 5.1563968,4.9998844 0 0 1 -5.156397,-4.999885 5.1563968,4.9998844 0 0 1 4.356082,-4.936083 c 0.216228,-0.05951 0.435145,-0.102807 0.657977,-0.110675 -0.624876,-0.41493 -1.326206,-0.634402 -2.037046,-0.665349 z"/>
 <path style="opacity:0.1;fill:#ffffff;fill-rule:evenodd" d="m 16.029297,1 c -0.259644,8.301e-4 -0.529569,0.2389489 -0.912109,0.7246094 L 7.1621094,13.179688 C 5.5635823,15.481359 4.9156462,17.889933 5.015625,20.136719 5.1233534,18.184995 5.7990453,16.142323 7.1621094,14.179688 L 15.117188,2.7246094 c 0.765079,-0.971321 1.078569,-0.9547664 1.765624,-0.021484 l 7.957032,11.4746086 c 1.362117,1.96437 2.037008,4.006338 2.144531,5.958985 0.09961,-2.247082 -0.54764,-4.656038 -2.144531,-6.958985 L 16.882812,1.703125 C 16.539285,1.236484 16.288941,0.99916988 16.029297,1 Z"/>
 <path style="opacity:0.2;fill:#ffffff;fill-rule:evenodd" d="M 16.005859,4.1054688 9.6425781,13.837891 c 0.3824929,-0.344685 0.7976699,-0.640174 1.2343749,-0.886719 l 5.128906,-7.8457032 6.640625,10.1699222 c 0.693572,1.075979 1.157171,2.088325 1.273438,3.064453 0.213359,-1.28141 -0.340464,-2.617076 -1.273438,-4.064453 z m 2.191407,11.1347652 c -0.217996,0.773514 -0.915621,1.417082 -1.947266,1.441407 -0.0051,5.71e-4 -0.01045,0.0033 -0.01563,0.0039 -1.671127,0.05951 -2.994978,1.429376 -2.996094,3.101562 1.22e-4,0.174433 0.02088,0.344634 0.04883,0.511719 0.230718,-1.441339 1.44353,-2.559732 2.947266,-2.613281 0.0052,-6e-4 0.01053,-0.0033 0.01563,-0.0039 1.462858,-0.03449 2.255464,-1.310078 1.947266,-2.441407 z"/>
 <path style="opacity:0.2;fill:#ffffff;fill-rule:evenodd" d="m 14.039062,14.003906 c -1.563846,-0.06809 -3.175113,0.77368 -4.132812,2.447266 -0.6874556,1.201332 -0.9890035,2.52026 -0.8808594,3.798828 0.077258,-0.954458 0.3717267,-1.909116 0.8808594,-2.798828 0.957699,-1.673586 2.568966,-2.515356 4.132812,-2.447266 0.120841,0.0053 0.241367,0.02287 0.361329,0.03906 a 5.1563968,4.9998844 0 0 1 1.017578,-0.263672 c 0.216228,-0.05951 0.435371,-0.101507 0.658203,-0.109375 -0.624876,-0.41493 -1.326269,-0.635069 -2.03711,-0.666016 z m -2.949218,6.195313 a 5.1563968,4.9998844 0 0 0 -0.02734,0.517578 5.1563968,4.9998844 0 0 0 5.15625,4.998047 5.1563968,4.9998844 0 0 0 0.0098,0 c 0.402875,0.03887 0.830245,0.03013 1.269531,-0.002 0.0014,-4.12e-4 0.0026,-0.0015 0.0039,-0.002 0.974776,-0.296782 1.844104,-0.808634 2.498047,-1.472657 -1.400537,0.41441 -2.655044,0.584276 -3.771484,0.476563 a 5.1563968,4.9998844 0 0 1 -0.0098,0 5.1563968,4.9998844 0 0 1 -5.128906,-4.515625 z"/>
 <g style="display:none" transform="translate(0,-16)">
  <path style="fill:#99c3f9;fill-rule:evenodd" d="m 21.55277,22.974939 c -5.188765,1.005551 -6.173294,6.973638 -4.694095,10.155871 2.191227,4.714034 8.449957,8.07696 17.664862,0.691234 -5.828901,10.827975 -14.873199,7.043001 -17.313798,4.977307 -1.97159,-1.66873 -4.164846,-4.855384 -4.11832,-8.341257 0.09522,-7.134172 6.604293,-9.266569 8.461351,-7.483155 z"/>
 </g>
 <g style="display:none" transform="translate(0,-16)">
  <path style="opacity:0.68800001;fill:url(#radialGradient4375);fill-rule:evenodd" d="m 23.956644,1.939572 -11.98159,18.384686 c -3.9618093,5.166305 -3.6931007,11.439356 -2.4054307,15.8855 5.3079527,10.817522 14.5668877,9.659123 14.5668877,9.659123 0,0 6.868403,-0.005 11.475831,-5.120874 2.283123,-2.535051 5.325726,-9.801674 2.662706,-16.234991 -0.49634,-1.028711 -3.75284,-6.551522 -4.429455,-7.554788 z"/>
 </g>
</svg>

<svg xmlns="http://www.w3.org/2000/svg" width="32" height="32" version="1.1">
 <path style="opacity:0.2" d="M 15.117,2.7254 7.1627,14.181 C 4.4266,18.12 4.457,22.376 6.3007,25.59 8.1444,28.805 11.772,31 16.003,31 20.233,31 23.859,28.805 25.701,25.59 27.543,22.376 27.572,18.12 24.839,14.178 L 16.882,2.7031 C 16.195,1.7698 15.882,1.7541 15.117,2.7254 Z"/>
 <path style="fill:#225394" d="M 15.117,1.7254 7.1627,13.181 C 4.4266,17.12 4.457,21.376 6.3007,24.59 8.1444,27.805 11.772,30 16.003,30 20.233,30 23.859,27.805 25.701,24.59 27.543,21.376 27.572,17.12 24.839,13.178 L 16.882,1.7031 C 16.195,0.76978 15.882,0.75408 15.117,1.7254 Z"/>
 <path style="opacity:0.2" d="M 16.007,5.1058 9.6428,14.837 C 11.119,13.507 13.074,12.884 14.931,13.151 15.785,13.275 16.619,13.586 17.373,14.102 19.032,15.239 18.261,17.635 16.251,17.682 16.246,17.683 16.24,17.684 16.235,17.685 14.564,17.744 13.239,19.116 13.238,20.788 13.239,22.364 14.421,23.69 15.987,23.872 16.455,23.964 16.983,23.93 17.643,23.823 19.009,23.594 20.996,22.995 22.065,22.085 24.752,19.952 24.261,17.781 22.646,15.275 Z"/>
 <path style="fill:#358eff" d="M 16.007,4.1058 9.6428,13.837 C 11.119,12.507 13.074,11.884 14.931,12.151 15.785,12.275 16.619,12.586 17.373,13.102 19.032,14.239 18.261,16.635 16.251,16.682 16.246,16.683 16.24,16.684 16.235,16.685 14.564,16.744 13.239,18.116 13.238,19.788 13.239,21.364 14.421,22.69 15.987,22.872 16.455,22.964 16.983,22.93 17.643,22.823 19.009,22.594 20.996,21.995 22.065,21.085 24.752,18.952 24.261,16.781 22.646,14.275 Z"/>
 <path style="opacity:0.2" d="M 14.039,15.004 C 12.475,14.936 10.864,15.778 9.9061,17.452 8.5131,19.886 8.6884,22.802 10.696,24.89 13.613,27.926 17.907,27.363 20,25.238 18.599,25.652 17.344,25.824 16.228,25.716 A 5.1564,4.9999 0 0 1 16.219,25.716 5.1564,4.9999 0 0 1 11.062,20.716 5.1564,4.9999 0 0 1 15.418,15.78 C 15.635,15.72 15.853,15.677 16.076,15.669 15.451,15.254 14.75,15.035 14.039,15.004 Z"/>
 <path style="fill:#c3dcfc" d="M 14.039,14.004 C 12.475,13.936 10.864,14.778 9.9061,16.452 8.5131,18.886 8.6884,21.802 10.696,23.89 13.613,26.926 17.907,26.363 20,24.238 18.599,24.652 17.344,24.824 16.228,24.716 A 5.1564,4.9999 0 0 1 16.219,24.716 5.1564,4.9999 0 0 1 11.062,19.716 5.1564,4.9999 0 0 1 15.418,14.78 C 15.635,14.72 15.853,14.677 16.076,14.669 15.451,14.254 14.75,14.035 14.039,14.004 Z"/>
 <path style="opacity:0.1;fill:#ffffff" d="M 16.029,1 C 15.77,1.0008 15.5,1.2389 15.117,1.7246 L 7.1621,13.18 C 5.5636,15.481 4.9156,17.89 5.0156,20.137 5.1234,18.185 5.799,16.142 7.1621,14.18 L 15.117,2.7246 C 15.882,1.7533 16.196,1.7698 16.883,2.7031 L 24.84,14.178 C 26.202,16.142 26.877,18.184 26.984,20.137 27.084,17.89 26.437,15.481 24.84,13.178 L 16.883,1.7031 C 16.539,1.2365 16.289,0.99917 16.029,1 Z"/>
 <path style="opacity:0.2;fill:#ffffff" d="M 16.006,4.1055 9.6426,13.838 C 10.025,13.493 10.44,13.198 10.877,12.951 L 16.006,5.1055 22.646,15.275 C 23.34,16.351 23.804,17.364 23.92,18.34 24.133,17.058 23.579,15.723 22.646,14.275 Z M 18.197,15.24 C 17.979,16.014 17.282,16.657 16.25,16.682 16.245,16.682 16.24,16.685 16.234,16.686 14.563,16.745 13.239,18.115 13.238,19.787 13.238,19.962 13.259,20.132 13.287,20.299 13.518,18.857 14.731,17.739 16.234,17.686 16.24,17.685 16.245,17.682 16.25,17.682 17.713,17.647 18.505,16.372 18.197,15.24 Z"/>
 <path style="opacity:0.2;fill:#ffffff" d="M 14.039,14.004 C 12.475,13.936 10.864,14.778 9.9062,16.451 9.2188,17.653 8.9172,18.971 9.0254,20.25 9.1026,19.296 9.3971,18.341 9.9062,17.451 10.864,15.778 12.475,14.936 14.039,15.004 14.16,15.009 14.28,15.027 14.4,15.043 A 5.1564,4.9999 0 0 1 15.418,14.779 C 15.634,14.72 15.853,14.678 16.076,14.67 15.451,14.255 14.75,14.035 14.039,14.004 Z M 11.09,20.199 A 5.1564,4.9999 0 0 0 11.063,20.717 5.1564,4.9999 0 0 0 16.219,25.715 5.1564,4.9999 0 0 0 16.229,25.715 C 16.631,25.754 17.059,25.745 17.498,25.713 17.499,25.712 17.501,25.711 17.502,25.711 18.477,25.414 19.346,24.902 20,24.238 18.599,24.653 17.345,24.822 16.229,24.715 A 5.1564,4.9999 0 0 1 16.219,24.715 5.1564,4.9999 0 0 1 11.09,20.199 Z"/>
</svg>
